X: 55
T:Yr Hen Wr yn Lladd y Llo
T:The Old Man Killing the Calf
M:6/8
L:1/8
Q:120
S:Mary Richards' (1787-1877) Collection
R:Jig
A:Wales
Z:brian_martin12345@yahoo.com
K:G
D|GBB BAB|GBd def|gfe dcB|BAAA2A|GBB BAB|!
GBd def|gfe dcB|BGGG2:||d|gfg efg|faf def|!
gfgefg|aAA A2A|GBB BAB|GBd def|gfe dcB|BGGG2:||

